assets/svg-color/robosmart.24bit.svg

<?xml version="1.0" encoding="UTF-8" standalone="no"?>
<!-- Created with Inkscape (http://www.inkscape.org/) -->

<svg
   xmlns:dc="http://purl.org/dc/elements/1.1/"
   xmlns:cc="http://creativecommons.org/ns#"
   xmlns:rdf="http://www.w3.org/1999/02/22-rdf-syntax-ns#"
   xmlns:svg="http://www.w3.org/2000/svg"
   xmlns="http://www.w3.org/2000/svg"
   version="1.1"
   width="216"
   height="216"
   viewBox="0 0 216 216"
   id="Layer_1"
   xml:space="preserve"><metadata
   id="metadata64"><rdf:RDF><cc:Work
       rdf:about=""><dc:format>image/svg+xml</dc:format><dc:type
         rdf:resource="http://purl.org/dc/dcmitype/StillImage" /><dc:title></dc:title></cc:Work></rdf:RDF></metadata><defs
   id="defs62" />
<path
   d="M 108.016,7.27 C 52.637,7.27 7.578,52.324 7.578,107.711 c 0,55.375 45.059,100.43 100.438,100.43 55.375,0 100.426,-45.055 100.426,-100.43 C 208.441,52.324 163.391,7.27 108.016,7.27 z"
   id="path3"
   style="fill:#111111" />
<g
   id="g5">
	<g
   transform="translate(0,-652.36218)"
   id="layer1">
		<g
   transform="matrix(0.58317137,0,0,0.58317137,-21.320358,547.95172)"
   id="g11063">
			
				<path
   d="m 220.729,535.904 c -94.761,0 -171.563,-76.816 -171.563,-171.563 0,-94.754 76.803,-171.57 171.563,-171.57 94.747,0 171.57,76.816 171.57,171.57 0,94.747 -76.823,171.563 -171.57,171.563 z"
   id="path10111-9"
   style="fill:#010101" />
			
				<path
   d="m 220.729,532.086 c -92.651,0 -167.759,-75.095 -167.759,-167.745 0,-92.65 75.108,-167.752 167.759,-167.752 92.631,0 167.739,75.101 167.739,167.752 0,92.651 -75.108,167.745 -167.739,167.745 z"
   id="path7234-8"
   style="fill:#989898" />
			
				<linearGradient
   x1="301.26749"
   y1="42.3195"
   x2="350.6702"
   y2="-11.3036"
   id="path7236-5_1_"
   gradientUnits="userSpaceOnUse"
   gradientTransform="matrix(0,2.7331,2.7331,0,301.2843,-639.8458)">
				<stop
   id="stop12"
   style="stop-color:#ffffff;stop-opacity:1"
   offset="0" />
				<stop
   id="stop14"
   style="stop-color:#ffffff;stop-opacity:0"
   offset="1" />
			</linearGradient>
			
				<path
   d="m 220.729,530.13 c -91.586,0 -165.803,-74.224 -165.803,-165.789 0,-91.565 74.217,-165.796 165.803,-165.796 91.546,0 165.789,74.23 165.789,165.796 0,91.566 -74.244,165.789 -165.789,165.789 z"
   id="path7236-5"
   style="fill:url(#path7236-5_1_)" />
			
				<g
   id="path7238-7">
				<path
   d="m 220.729,528.623 c -90.742,0 -164.302,-73.561 -164.302,-164.282 0,-90.735 73.561,-164.282 164.302,-164.282 90.735,0 164.262,73.547 164.262,164.282 0,90.721 -73.527,164.282 -164.262,164.282 z"
   id="path18"
   style="fill:#ececec" />
			</g>
			
				<g
   id="path7240-8">
				<path
   d="m 220.729,522.005 c -87.091,0 -157.685,-70.587 -157.685,-157.664 0,-87.077 70.594,-157.671 157.685,-157.671 87.064,0 157.658,70.593 157.658,157.671 0,87.078 -70.594,157.664 -157.658,157.664 z"
   id="path21"
   style="fill:#989898" />
			</g>
			
				<path
   d="m 221.566,521.992 c -87.56,0 -158.522,-70.968 -158.522,-158.515 0,-87.547 70.962,-158.515 158.522,-158.515 87.54,0 158.502,70.968 158.502,158.515 0,87.547 -70.962,158.515 -158.502,158.515 z"
   id="path9341-4"
   style="opacity:0.87610001;fill:#1d2c17" />
			
				<linearGradient
   x1="423.80109"
   y1="-37.2453"
   x2="468.08261"
   y2="-97.666901"
   id="path7242-5_1_"
   gradientUnits="userSpaceOnUse"
   gradientTransform="matrix(0,2.4984,2.4984,0,436.0293,-784.0801)">
				<stop
   id="stop25"
   style="stop-color:#1d2c17;stop-opacity:1"
   offset="0" />
				<stop
   id="stop27"
   style="stop-color:#21b24b;stop-opacity:1"
   offset="1" />
			</linearGradient>
			
				<path
   d="m 220.729,515.896 c -83.715,0 -151.556,-67.854 -151.556,-151.556 0,-83.702 67.84,-151.562 151.556,-151.562 83.688,0 151.549,67.86 151.549,151.562 0,83.702 -67.861,151.556 -151.549,151.556 z"
   id="path7242-5"
   style="fill:url(#path7242-5_1_)" />
			
				<radialGradient
   cx="-2115.2446"
   cy="194.81371"
   r="35.376999"
   id="path7244-5_1_"
   gradientUnits="userSpaceOnUse"
   gradientTransform="matrix(1.3946,-1.3946,-1.6809,-1.6809,3380.8538,-2171.9702)">
				<stop
   id="stop31"
   style="stop-color:#ffffff;stop-opacity:0.4082"
   offset="0" />
				<stop
   id="stop33"
   style="stop-color:#ffffff;stop-opacity:0"
   offset="1" />
			</radialGradient>
			
				<path
   d="m 213.555,511.422 c -78.759,0 -142.593,-63.848 -142.593,-142.613 0,-78.752 63.835,-142.593 142.593,-142.593 78.758,0 142.6,63.841 142.6,142.593 0,78.765 -63.841,142.613 -142.6,142.613 z"
   id="path7244-5"
   style="fill:url(#path7244-5_1_)" />
			<g
   transform="translate(13.99983,104.85703)"
   id="g10501-9">
				<path
   d="M 358.244,258.479 H 57.384"
   id="path10127-7"
   style="fill:none;stroke:#ffffff;stroke-width:1.27629995" />
				<path
   d="M 208.149,404.656 V 111.626"
   id="path10129-5"
   style="fill:none;stroke:#ffffff;stroke-width:1.62609994" />
			</g>
			
				<path
   d="m 221.472,491.066 c -70.714,0 -128.065,-57.331 -128.065,-128.058 0,-70.734 57.351,-128.078 128.065,-128.078 70.747,0 128.058,57.344 128.058,128.078 0,70.727 -57.31,128.058 -128.058,128.058 z"
   id="path10115-6"
   style="opacity:0.87610001;fill:none;stroke:#ffffff;stroke-width:2.00099993" />
			
				<path
   d="m 221.472,437.7 c -41.248,0 -74.699,-33.438 -74.699,-74.693 0,-41.268 33.451,-74.713 74.699,-74.713 41.275,0 74.713,33.445 74.713,74.713 0,41.256 -33.438,74.693 -74.713,74.693 z"
   id="path10119-1"
   style="opacity:0.87610001;fill:none;stroke:#ffffff;stroke-width:2.00099993" />
			
				<path
   d="m 221.472,365.674 c -1.46,0 -2.666,-1.199 -2.666,-2.666 0,-1.48 1.206,-2.673 2.666,-2.673 1.487,0 2.679,1.192 2.679,2.673 10e-4,1.467 -1.192,2.666 -2.679,2.666 z"
   id="path10125-4"
   style="opacity:0.87610001;fill:none" />
			
				<linearGradient
   x1="-4816.8105"
   y1="-4421.7954"
   x2="-4676.7837"
   y2="-4399.5933"
   id="path10131-6_1_"
   gradientUnits="userSpaceOnUse"
   gradientTransform="matrix(0.5348,0.0169,0.0169,-0.5348,2832.562,-1839.9913)">
				<stop
   id="stop43"
   style="stop-color:#9ed18b;stop-opacity:1"
   offset="0" />
				<stop
   id="stop45"
   style="stop-color:#dee3db;stop-opacity:0"
   offset="1" />
			</linearGradient>
			
				<path
   d="m 371.742,367.69 c -2.599,82.436 -71.544,147.148 -153.98,144.542 -38.314,-1.212 -74.706,-17.121 -101.62,-44.416 l 106.342,-104.848 149.258,4.722 z"
   id="path10131-6"
   style="opacity:0.87610001;fill:url(#path10131-6_1_)" />
			
				<g
   id="path10213-2">
				<path
   d="m 321.532,312.308 c -2.559,0 -4.615,-2.063 -4.615,-4.608 0,-2.545 2.056,-4.615 4.615,-4.615 2.539,0 4.608,2.07 4.608,4.615 0,2.545 -2.07,4.608 -4.608,4.608 z"
   id="path49"
   style="fill:#ffffff" />
			</g>
			
				<g
   id="path10495-9">
				<path
   d="m 262.098,412.816 c -2.552,0 -4.615,-2.076 -4.615,-4.608 0,-2.552 2.063,-4.629 4.615,-4.629 2.539,0 4.608,2.076 4.608,4.629 0,2.532 -2.07,4.608 -4.608,4.608 z"
   id="path52"
   style="fill:#ffffff" />
			</g>
		</g>
	</g>
	
		<g
   id="path10213-2_1_">
		<path
   d="m 91.75,41.875 c 0,1.484 -1.203,2.691 -2.684,2.691 -1.492,0 -2.688,-1.207 -2.688,-2.691 0,-1.484 1.195,-2.691 2.688,-2.691 1.481,0 2.684,1.207 2.684,2.691 z"
   id="path55"
   style="fill:#ffffff" />
	</g>
	
		<g
   id="path10213-2_2_">
		<path
   d="m 71.035,160.023 c 0,1.48 -1.199,2.695 -2.688,2.695 -1.48,0 -2.688,-1.215 -2.688,-2.695 0,-1.484 1.207,-2.695 2.688,-2.695 1.489,0 2.688,1.211 2.688,2.695 z"
   id="path58"
   style="fill:#ffffff" />
	</g>
</g>
</svg>

<?xml version="1.0" encoding="utf-8"?>
<!-- Generator: Adobe Illustrator 15.1.0, SVG Export Plug-In . SVG Version: 6.00 Build 0)  -->
<!DOCTYPE svg PUBLIC "-//W3C//DTD SVG 1.1//EN" "http://www.w3.org/Graphics/SVG/1.1/DTD/svg11.dtd">
<svg version="1.1" id="Layer_1" xmlns="http://www.w3.org/2000/svg" xmlns:xlink="http://www.w3.org/1999/xlink" x="0px" y="0px"
	 width="216px" height="216px" viewBox="0 0 216 216" enable-background="new 0 0 216 216" xml:space="preserve">
<path fill="#111111" d="M108.016,7.27C52.637,7.27,7.578,52.324,7.578,107.711c0,55.375,45.059,100.43,100.438,100.43
	c55.375,0,100.426-45.055,100.426-100.43C208.441,52.324,163.391,7.27,108.016,7.27z"/>
<g>
	<g id="layer1" transform="translate(0,-652.36218)" inkscape:groupmode="layer" inkscape:label="Layer 1">
		<g id="g11063" transform="matrix(0.58317137,0,0,0.58317137,-21.320358,547.95172)">
			
				<path id="path10111-9" sodipodi:type="arc" sodipodi:rx="53.035713" sodipodi:ry="53.035713" sodipodi:cy="346.11218" sodipodi:cx="303.75" fill="#010101" d="
				M220.729,535.904c-94.761,0-171.563-76.816-171.563-171.563c0-94.754,76.803-171.57,171.563-171.57
				c94.747,0,171.57,76.816,171.57,171.57C392.299,459.088,315.476,535.904,220.729,535.904z"/>
			
				<path id="path7234-8" sodipodi:type="arc" sodipodi:rx="53.035713" sodipodi:ry="53.035713" sodipodi:cy="346.11218" sodipodi:cx="303.75" fill="#989898" d="
				M220.729,532.086c-92.651,0-167.759-75.095-167.759-167.745s75.108-167.752,167.759-167.752
				c92.631,0,167.739,75.101,167.739,167.752S313.36,532.086,220.729,532.086z"/>
			
				<linearGradient id="path7236-5_1_" gradientUnits="userSpaceOnUse" x1="301.2675" y1="42.3195" x2="350.6702" y2="-11.3036" gradientTransform="matrix(0 2.7331 2.7331 0 301.2843 -639.8458)">
				<stop  offset="0" style="stop-color:#FFFFFF"/>
				<stop  offset="1" style="stop-color:#FFFFFF;stop-opacity:0"/>
			</linearGradient>
			
				<path id="path7236-5" sodipodi:type="arc" sodipodi:rx="53.035713" sodipodi:ry="53.035713" sodipodi:cy="346.11218" sodipodi:cx="303.75" fill="url(#path7236-5_1_)" d="
				M220.729,530.13c-91.586,0-165.803-74.224-165.803-165.789s74.217-165.796,165.803-165.796
				c91.546,0,165.789,74.23,165.789,165.796S312.274,530.13,220.729,530.13z"/>
			
				<g id="path7238-7" sodipodi:type="arc" sodipodi:rx="53.035713" sodipodi:ry="53.035713" sodipodi:cy="346.11218" sodipodi:cx="303.75">
				<path fill="#ECECEC" d="M220.729,528.623c-90.742,0-164.302-73.561-164.302-164.282c0-90.735,73.561-164.282,164.302-164.282
					c90.735,0,164.262,73.547,164.262,164.282C384.991,455.062,311.464,528.623,220.729,528.623z"/>
			</g>
			
				<g id="path7240-8" sodipodi:type="arc" sodipodi:rx="53.035713" sodipodi:ry="53.035713" sodipodi:cy="346.11218" sodipodi:cx="303.75">
				<path fill="#989898" d="M220.729,522.005c-87.091,0-157.685-70.587-157.685-157.664S133.638,206.67,220.729,206.67
					c87.064,0,157.658,70.593,157.658,157.671S307.793,522.005,220.729,522.005z"/>
			</g>
			
				<path id="path9341-4" sodipodi:type="arc" sodipodi:rx="53.035713" sodipodi:ry="53.035713" sodipodi:cy="346.11218" sodipodi:cx="303.75" opacity="0.8761" fill="#1D2C17" enable-background="new    " d="
				M221.566,521.992c-87.56,0-158.522-70.968-158.522-158.515s70.962-158.515,158.522-158.515
				c87.54,0,158.502,70.968,158.502,158.515S309.106,521.992,221.566,521.992z"/>
			
				<linearGradient id="path7242-5_1_" gradientUnits="userSpaceOnUse" x1="423.8011" y1="-37.2453" x2="468.0826" y2="-97.6669" gradientTransform="matrix(0 2.4984 2.4984 0 436.0293 -784.0801)">
				<stop  offset="0" style="stop-color:#1D2C17"/>
				<stop  offset="1" style="stop-color:#21B24B"/>
			</linearGradient>
			
				<path id="path7242-5" sodipodi:type="arc" sodipodi:rx="53.035713" sodipodi:ry="53.035713" sodipodi:cy="346.11218" sodipodi:cx="303.75" fill="url(#path7242-5_1_)" d="
				M220.729,515.896c-83.715,0-151.556-67.854-151.556-151.556s67.84-151.562,151.556-151.562
				c83.688,0,151.549,67.86,151.549,151.562S304.417,515.896,220.729,515.896z"/>
			
				<radialGradient id="path7244-5_1_" cx="-2115.2446" cy="194.8137" r="35.377" gradientTransform="matrix(1.3946 -1.3946 -1.6809 -1.6809 3380.8538 -2171.9702)" gradientUnits="userSpaceOnUse">
				<stop  offset="0" style="stop-color:#FFFFFF;stop-opacity:0.4082"/>
				<stop  offset="1" style="stop-color:#FFFFFF;stop-opacity:0"/>
			</radialGradient>
			
				<path id="path7244-5" sodipodi:type="arc" sodipodi:rx="53.035713" sodipodi:ry="53.035713" sodipodi:cy="346.11218" sodipodi:cx="303.75" fill="url(#path7244-5_1_)" d="
				M213.555,511.422c-78.759,0-142.593-63.848-142.593-142.613c0-78.752,63.835-142.593,142.593-142.593s142.6,63.841,142.6,142.593
				C356.155,447.574,292.314,511.422,213.555,511.422z"/>
			<g id="g10501-9" transform="translate(13.99983,104.85703)">
				<path id="path10127-7" inkscape:connector-curvature="0" fill="none" stroke="#FFFFFF" stroke-width="1.2763" d="
					M358.244,258.479H57.384"/>
				<path id="path10129-5" inkscape:connector-curvature="0" fill="none" stroke="#FFFFFF" stroke-width="1.6261" d="
					M208.149,404.656v-293.03"/>
			</g>
			
				<path id="path10115-6" sodipodi:type="arc" sodipodi:rx="192" sodipodi:ry="192" sodipodi:cy="420.36218" sodipodi:cx="342" opacity="0.8761" fill="none" stroke="#FFFFFF" stroke-width="2.001" enable-background="new    " d="
				M221.472,491.066c-70.714,0-128.065-57.331-128.065-128.058c0-70.734,57.351-128.078,128.065-128.078
				c70.747,0,128.058,57.344,128.058,128.078C349.53,433.735,292.22,491.066,221.472,491.066z"/>
			
				<path id="path10119-1" sodipodi:type="arc" sodipodi:rx="192" sodipodi:ry="192" sodipodi:cy="420.36218" sodipodi:cx="342" opacity="0.8761" fill="none" stroke="#FFFFFF" stroke-width="2.001" enable-background="new    " d="
				M221.472,437.7c-41.248,0-74.699-33.438-74.699-74.693c0-41.268,33.451-74.713,74.699-74.713
				c41.275,0,74.713,33.445,74.713,74.713C296.185,404.263,262.747,437.7,221.472,437.7z"/>
			
				<path id="path10125-4" sodipodi:type="arc" sodipodi:rx="192" sodipodi:ry="192" sodipodi:cy="420.36218" sodipodi:cx="342" opacity="0.8761" fill="none" enable-background="new    " d="
				M221.472,365.674c-1.46,0-2.666-1.199-2.666-2.666c0-1.48,1.206-2.673,2.666-2.673c1.487,0,2.679,1.192,2.679,2.673
				C224.152,364.475,222.959,365.674,221.472,365.674z"/>
			
				<linearGradient id="path10131-6_1_" gradientUnits="userSpaceOnUse" x1="-4816.8105" y1="-4421.7954" x2="-4676.7837" y2="-4399.5933" gradientTransform="matrix(0.5348 0.0169 0.0169 -0.5348 2832.562 -1839.9913)">
				<stop  offset="0" style="stop-color:#9ED18B"/>
				<stop  offset="1" style="stop-color:#DEE3DB;stop-opacity:0"/>
			</linearGradient>
			
				<path id="path10131-6" sodipodi:type="arc" sodipodi:rx="244" sodipodi:ry="244" sodipodi:cy="192.36218" sodipodi:cx="-398" sodipodi:start="0" inkscape:transform-center-x="-113.03432" sodipodi:end="2.3317599" inkscape:transform-center-y="-30.418136" opacity="0.8761" fill="url(#path10131-6_1_)" enable-background="new    " d="
				M371.742,367.69c-2.599,82.436-71.544,147.148-153.98,144.542c-38.314-1.212-74.706-17.121-101.62-44.416l106.342-104.848
				L371.742,367.69z"/>
			
				<g id="path10213-2" sodipodi:type="arc" sodipodi:rx="53.035713" sodipodi:ry="53.035713" sodipodi:cy="346.11218" sodipodi:cx="303.75">
				<path fill="#FFFFFF" d="M321.532,312.308c-2.559,0-4.615-2.063-4.615-4.608c0-2.545,2.056-4.615,4.615-4.615
					c2.539,0,4.608,2.07,4.608,4.615C326.14,310.245,324.07,312.308,321.532,312.308z"/>
			</g>
			
				<g id="path10495-9" sodipodi:type="arc" sodipodi:rx="53.035713" sodipodi:ry="53.035713" sodipodi:cy="346.11218" sodipodi:cx="303.75">
				<path fill="#FFFFFF" d="M262.098,412.816c-2.552,0-4.615-2.076-4.615-4.608c0-2.552,2.063-4.629,4.615-4.629
					c2.539,0,4.608,2.076,4.608,4.629C266.706,410.74,264.636,412.816,262.098,412.816z"/>
			</g>
		</g>
	</g>
	
		<g id="path10213-2_1_" sodipodi:type="arc" sodipodi:rx="53.035713" sodipodi:ry="53.035713" sodipodi:cy="346.11218" sodipodi:cx="303.75">
		<path fill="#FFFFFF" d="M91.75,41.875c0,1.484-1.203,2.691-2.684,2.691c-1.492,0-2.688-1.207-2.688-2.691s1.195-2.691,2.688-2.691
			C90.547,39.184,91.75,40.391,91.75,41.875z"/>
	</g>
	
		<g id="path10213-2_2_" sodipodi:type="arc" sodipodi:rx="53.035713" sodipodi:ry="53.035713" sodipodi:cy="346.11218" sodipodi:cx="303.75">
		<path fill="#FFFFFF" d="M71.035,160.023c0,1.48-1.199,2.695-2.688,2.695c-1.48,0-2.688-1.215-2.688-2.695
			c0-1.484,1.207-2.695,2.688-2.695C69.836,157.328,71.035,158.539,71.035,160.023z"/>
	</g>
</g>
</svg>
